X:71
T:Mullowny's Jigg THO4.071
M:6/8
L:1/8
Z:vmp. Peter Dunk 2010/11.from a transcription by Fynn Titford-Mock 2007
B:Thompson's Compleat Collection of 200 Favourite Country Dances Volume IV.
Q:3/8=105
K:D
A/G/|FGA AFA|AFA AFA|GBG FAF|BGE E2 A/G/|\
FGA AFA|AFA d2 A|dcB AFd|AFD D2:|
c/d/|ecA dcd|ecA d2 A|BGB AFA|BGE E2 c/d/|\
ecA dcd|ecA d2 A|dcB AFd|AFD D2:|
